receipt-text-plus-outline.svg

<svg fill="currentColor" viewBox="0 0 24 24"><path d="M18 15v3h-3v2h3v3h2v-3h3v-2h-3v-3zm-4.74 5.74L12 22l-1.5-1.5L9 22l-1.5-1.5L6 22l-1.5-1.5L3 22V2l1.5 1.5L6 2l1.5 1.5L9 2l1.5 1.5L12 2l1.5 1.5L15 2l1.5 1.5L18 2l1.5 1.5L21 2v11.35c-.63-.22-1.3-.35-2-.35V5H5v14h8c0 .57.1 1.22.26 1.74M14.54 15c-.54.58-.93 1.25-1.19 2H6v-2zM6 11h12v2H6zm0-4h12v2H6z"/></svg>

<svg  viewBox="0 0 24 24" fill="currentColor"><path  d="M18 15V18H15V20H18V23H20V20H23V18H20V15H18M13.26 20.74L12 22L10.5 20.5L9 22L7.5 20.5L6 22L4.5 20.5L3 22V2L4.5 3.5L6 2L7.5 3.5L9 2L10.5 3.5L12 2L13.5 3.5L15 2L16.5 3.5L18 2L19.5 3.5L21 2V13.35C20.37 13.13 19.7 13 19 13V5H5V19H13C13 19.57 13.1 20.22 13.26 20.74M14.54 15C14 15.58 13.61 16.25 13.35 17H6V15H14.54M6 11H18V13H6V11M6 7H18V9H6V7Z"/></svg>
